.local/share/icons/Gruvbox-Plus-Dark/devices/scalable/wiimotedev.svg

<svg width="256" height="256" style="isolation:isolate" version="1.1" xmlns="http://www.w3.org/2000/svg" xmlns:xlink="http://www.w3.org/1999/xlink">
  <g transform="translate(0 -.1185)" filter="url(#a)">
    <linearGradient id="b" x1=".5002" x2=".5002" y2="1" gradientTransform="matrix(244,0,0,228,5.981,12.12)" gradientUnits="userSpaceOnUse">
      <stop stop-color="#83a598" offset="0"/>
      <stop stop-color="#458588" offset="1"/>
    </linearGradient>
    <path d="m165 12.12c72 0 85 15 85 87v56c0 70-13 85-85 85h-74c-72 0-85-15-85-85v-56c0-72 13-87 85-87z" fill="url(#b)"/>
  </g>
  <defs>
    <linearGradient id="linearGradient31" x1=".5002" x2=".5002" y2="1" gradientTransform="matrix(244,0,0,228,5.988,12.12)" gradientUnits="userSpaceOnUse">
      <stop stop-color="#d5c4a1" offset="0"/>
      <stop stop-color="#d5c4a1" stop-opacity=".09804" offset=".1"/>
      <stop stop-color="#282828" stop-opacity=".1" offset=".9"/>
      <stop stop-color="#282828" stop-opacity=".4" offset="1"/>
    </linearGradient>
    <linearGradient id="a">
      <stop stop-color="#3c3836" offset="0"/>
      <stop stop-color="#504945" offset="1"/>
    </linearGradient>
    <linearGradient id="_lgradient_161" x2="1" y1="1" y2="1" gradientTransform="matrix(40.77,0,0,165,107.6,44.5)" gradientUnits="userSpaceOnUse">
      <stop stop-color="#ebdbb2" offset="0"/>
      <stop stop-color="#d5c4a1" offset="1"/>
    </linearGradient>
    <linearGradient id="_lgradient_162" x2="0" y2="1" gradientTransform="matrix(15.59,0,0,15.59,130.5,101.7)" gradientUnits="userSpaceOnUse">
      <stop stop-color="#665c54" offset="0"/>
      <stop stop-color="#3c3836" offset="1"/>
    </linearGradient>
    <linearGradient id="_lgradient_163" x2="0" y2="1" gradientTransform="matrix(37.48,0,0,37.48,109.2,59.77)" gradientUnits="userSpaceOnUse">
      <stop stop-color="#665c54" offset="0"/>
      <stop stop-color="#3c3836" offset="1"/>
    </linearGradient>
    <linearGradient id="_lgradient_164" x1="1" x2="1" y1="1" gradientTransform="matrix(15.59,0,0,15.59,109.3,101.7)" gradientUnits="userSpaceOnUse">
      <stop stop-color="#665c54" offset="0"/>
      <stop stop-color="#3c3836" offset="1"/>
    </linearGradient>
    <linearGradient id="_lgradient_165" x2="0" y2="1" gradientTransform="matrix(17.61,0,0,17.61,118.9,70)" gradientUnits="userSpaceOnUse">
      <stop stop-color="#ebdbb2" offset="0"/>
      <stop stop-color="#d5c4a1" offset="1"/>
    </linearGradient>
  </defs>
  <g transform="translate(.0005039 -.1185)" opacity=".5">
    <path d="m91 12.12c-72 0-85 15-85 87v56c0 70 13 85 85 85h74c72 0 85-15 85-85v-56c0-72-13-87-85-87zm0 4h74c68 0 80 15 80 83v56c0 66-12 81-80 81h-74c-68 0-80-15-80-81v-56c0-68 12-83 80-83z" fill="url(#linearGradient31)" opacity="1"/>
  </g>
  <g transform="translate(-.05 -1.294)" style="isolation:isolate">
    <path d="m113.4 49.12h29.3c3.177 0 5.734 2.557 5.734 5.734v153.5c0 3.177-2.557 5.734-5.734 5.734h-29.3c-3.177 0-5.734-2.557-5.734-5.734v-153.5c0-3.177 2.557-5.734 5.734-5.734z" fill="#282828" fill-rule="evenodd" opacity=".3" style="isolation:isolate"/>
    <path d="m113.4 44.5h29.3c3.177 0 5.734 2.557 5.734 5.734v153.5c0 3.177-2.557 5.734-5.734 5.734h-29.3c-3.177 0-5.734-2.557-5.734-5.734v-153.5c0-3.177 2.557-5.734 5.734-5.734z" fill="url(#_lgradient_161)" fill-rule="evenodd"/>
    <path d="m146.1 109.5c0 4.305-3.49 7.796-7.795 7.796-4.306 0-7.796-3.491-7.796-7.796 0-4.306 3.49-7.796 7.796-7.796 4.305 0 7.795 3.49 7.795 7.796z" fill="url(#_lgradient_162)" fill-rule="evenodd"/>
    <path d="m146.6 78.51c0 10.35-8.389 18.74-18.74 18.74-10.35 0-18.74-8.389-18.74-18.74 0-10.35 8.39-18.74 18.74-18.74s18.74 8.389 18.74 18.74z" fill="url(#_lgradient_163)" fill-rule="evenodd"/>
    <path d="m124.9 109.5c0 4.305-3.49 7.796-7.796 7.796-4.305 0-7.795-3.491-7.795-7.796 0-4.306 3.49-7.796 7.795-7.796 4.306 0 7.796 3.49 7.796 7.796z" fill="url(#_lgradient_164)" fill-rule="evenodd"/>
    <path d="m136.5 78.81c0 4.863-3.942 8.805-8.805 8.805s-8.805-3.942-8.805-8.805c0-4.864 3.942-8.806 8.805-8.806s8.805 3.942 8.805 8.806z" fill="url(#_lgradient_165)" fill-rule="evenodd"/>
    <path d="m119.3 109.8v-1.402l0.548-0.049v1.36c0 0.225 0.096 0.338 0.287 0.338l0.044-3e-3c0.119-0.01 0.195-0.05 0.226-0.119 0.031-0.07 0.047-0.15 0.047-0.242v-1.28l0.554-0.049v1.386c0 0.264-0.079 0.464-0.237 0.601s-0.361 0.212-0.611 0.221h-0.039c-0.153 0-0.289-0.028-0.408-0.083-0.13-0.061-0.231-0.15-0.302-0.268-0.073-0.116-0.109-0.253-0.109-0.411zm-2.103 0.744v-2.281l1.321 1.199v-1.059l0.528-0.054v2.296l-1.311-1.176v1.028zm-1.666-0.047v-2.094h1.248l0.107 0.463h-0.817v0.33h0.587v0.463h-0.592v0.375h0.879l-0.138 0.463zm-2.723 0 0.572-2.205 0.671 1.372 0.697-1.367 0.554 2.195-0.539 0.047-0.174-0.932-0.538 1.056-0.523-1.066-0.187 0.96z" fill="#ebdbb2"/>
    <path d="m136.2 108.4 2.013 1.033-2.004 1.081zm3.188 2.114v-2.114h0.594v2.114zm1.155 0v-2.114h0.594v2.114z" fill="#ebdbb2"/>
    <path d="m128.6 62.18c0 0.413-0.335 0.747-0.748 0.747s-0.747-0.334-0.747-0.747 0.334-0.748 0.747-0.748 0.748 0.335 0.748 0.748z" fill="#ebdbb2" fill-rule="evenodd"/>
    <path d="m144.8 78.8c0 0.412-0.335 0.747-0.747 0.747-0.413 0-0.748-0.335-0.748-0.747 0-0.413 0.335-0.748 0.748-0.748 0.412 0 0.747 0.335 0.747 0.748z" fill="#ebdbb2" fill-rule="evenodd"/>
    <path d="m112.3 78.8c0 0.412-0.335 0.747-0.748 0.747s-0.747-0.335-0.747-0.747c0-0.413 0.334-0.748 0.747-0.748s0.748 0.335 0.748 0.748z" fill="#ebdbb2" fill-rule="evenodd"/>
    <path d="m128.5 95.02c0 0.412-0.334 0.747-0.747 0.747s-0.748-0.335-0.748-0.747c0-0.413 0.335-0.748 0.748-0.748s0.747 0.335 0.747 0.748z" fill="#ebdbb2" fill-rule="evenodd"/>
  </g>
</svg>

<svg xmlns="http://www.w3.org/2000/svg" style="isolation:isolate" width="256" height="256" viewBox="0 0 256 256">
 <defs>
  <clipPath id="_clipPath_0BkYDDMDn9vmw7w6SSoLEo4DtvwGaI2w">
   <rect width="256" height="256"/>
  </clipPath>
 </defs>
 <g clip-path="url(#_clipPath_0BkYDDMDn9vmw7w6SSoLEo4DtvwGaI2w)">
  <defs>
   <filter id="V0bx70Y7alGrEYItdjOkW1sTrzImBAUv" width="400%" height="400%" x="-200%" y="-200%" color-interpolation-filters="sRGB" filterUnits="objectBoundingBox">
    <feGaussianBlur xmlns="http://www.w3.org/2000/svg" in="SourceGraphic" stdDeviation="4.294"/>
    <feOffset xmlns="http://www.w3.org/2000/svg" dx="0" dy="4" result="pf_100_offsetBlur"/>
    <feFlood xmlns="http://www.w3.org/2000/svg" flood-opacity=".4"/>
    <feComposite xmlns="http://www.w3.org/2000/svg" in2="pf_100_offsetBlur" operator="in" result="pf_100_dropShadow"/>
    <feBlend xmlns="http://www.w3.org/2000/svg" in="SourceGraphic" in2="pf_100_dropShadow" mode="normal"/>
   </filter>
  </defs>
  <g filter="url(#V0bx70Y7alGrEYItdjOkW1sTrzImBAUv)">
   <linearGradient id="_lgradient_159" x1=".5" x2=".5" y1="0" y2="1" gradientTransform="matrix(244.648,0,0,228.338,5.68,11.95)" gradientUnits="userSpaceOnUse">
    <stop offset="0%" style="stop-color:#83a598"/>
    <stop offset="100%" style="stop-color:#458588"/>
   </linearGradient>
   <path fill="url(#_lgradient_159)" d="M 165.689 11.95 C 239.745 11.95 250.328 22.507 250.328 96.494 L 250.328 155.745 C 250.328 229.731 239.745 240.288 165.689 240.288 L 90.319 240.288 C 16.264 240.288 5.68 229.731 5.68 155.745 L 5.68 96.494 C 5.68 22.507 16.264 11.95 90.319 11.95 L 165.689 11.95 Z"/>
  </g>
  <g opacity=".4">
   <linearGradient id="_lgradient_160" x1=".517" x2=".517" y1="0" y2="1" gradientTransform="matrix(244.65,0,0,228.34,5.68,11.95)" gradientUnits="userSpaceOnUse">
    <stop offset="0%" style="stop-color:#ebdbb2"/>
    <stop offset="12.5%" stop-opacity=".098" style="stop-color:#ebdbb2"/>
    <stop offset="92.5%" stop-opacity=".098" style="stop-color:#282828"/>
    <stop offset="100%" stop-opacity=".498" style="stop-color:#282828"/>
   </linearGradient>
   <path fill="url(#_lgradient_160)" fill-rule="evenodd" d="M 165.068 11.951 C 169.396 11.941 173.724 11.991 178.052 12.089 C 181.927 12.167 185.803 12.315 189.678 12.541 C 193.131 12.737 196.583 13.022 200.026 13.395 C 203.085 13.73 206.144 14.181 209.174 14.741 C 211.889 15.243 214.574 15.881 217.22 16.657 C 219.62 17.355 221.971 18.219 224.243 19.241 C 226.358 20.184 228.384 21.304 230.302 22.591 C 232.142 23.829 233.863 25.244 235.437 26.806 C 237.001 28.378 238.417 30.088 239.656 31.925 C 240.945 33.841 242.066 35.865 243.02 37.967 C 244.043 40.247 244.909 42.585 245.617 44.972 C 246.394 47.615 247.034 50.297 247.535 53.009 C 248.096 56.035 248.548 59.081 248.883 62.136 C 249.257 65.575 249.542 69.014 249.739 72.462 C 249.965 76.323 250.112 80.194 250.201 84.055 C 250.289 88.378 250.339 92.701 250.329 97.014 L 250.329 155.226 C 250.339 159.549 250.289 163.862 250.201 168.185 C 250.112 172.056 249.965 175.917 249.739 179.778 C 249.542 183.226 249.257 186.675 248.883 190.104 C 248.548 193.159 248.096 196.215 247.535 199.241 C 247.034 201.943 246.394 204.625 245.617 207.268 C 244.909 209.655 244.043 212.003 243.02 214.273 C 242.066 216.385 240.945 218.399 239.656 220.315 C 238.417 222.152 237.001 223.872 235.437 225.434 C 233.863 226.996 232.142 228.411 230.302 229.649 C 228.384 230.936 226.358 232.056 224.243 232.999 C 221.971 234.021 219.62 234.885 217.22 235.593 C 214.574 236.369 211.889 237.007 209.174 237.499 C 206.144 238.068 203.085 238.51 200.026 238.845 C 196.583 239.218 193.131 239.503 189.678 239.699 C 185.803 239.925 181.927 240.073 178.052 240.161 C 173.724 240.249 169.396 240.299 165.068 240.289 L 90.942 240.289 C 86.614 240.299 82.286 240.249 77.958 240.161 C 74.083 240.073 70.207 239.925 66.332 239.699 C 62.879 239.503 59.427 239.218 55.984 238.845 C 52.925 238.51 49.866 238.068 46.836 237.499 C 44.121 237.007 41.436 236.369 38.79 235.593 C 36.39 234.885 34.039 234.021 31.767 232.999 C 29.652 232.056 27.626 230.936 25.708 229.649 C 23.868 228.411 22.147 226.996 20.573 225.434 C 19.009 223.872 17.593 222.152 16.354 220.315 C 15.065 218.399 13.944 216.385 12.99 214.273 C 11.967 212.003 11.101 209.655 10.393 207.268 C 9.616 204.625 8.976 201.943 8.475 199.241 C 7.914 196.215 7.462 193.159 7.127 190.104 C 6.753 186.675 6.468 183.226 6.271 179.778 C 6.045 175.917 5.898 172.056 5.809 168.185 C 5.721 163.862 5.671 159.549 5.681 155.226 L 5.681 97.014 C 5.671 92.701 5.721 88.378 5.809 84.055 C 5.898 80.194 6.045 76.323 6.271 72.462 C 6.468 69.014 6.753 65.575 7.127 62.136 C 7.462 59.081 7.914 56.035 8.475 53.009 C 8.976 50.297 9.616 47.615 10.393 44.972 C 11.101 42.585 11.967 40.247 12.99 37.967 C 13.944 35.865 15.065 33.841 16.354 31.925 C 17.593 30.088 19.009 28.378 20.573 26.806 C 22.147 25.244 23.868 23.829 25.708 22.591 C 27.626 21.304 29.652 20.184 31.767 19.241 C 34.039 18.219 36.39 17.355 38.79 16.657 C 41.436 15.881 44.121 15.243 46.836 14.741 C 49.866 14.181 52.925 13.73 55.984 13.395 C 59.427 13.022 62.879 12.737 66.332 12.541 C 70.207 12.315 74.083 12.167 77.958 12.089 C 82.286 11.991 86.614 11.941 90.942 11.951 L 165.068 11.951 Z M 165.078 15.96 C 169.376 15.95 173.675 15.999 177.973 16.087 C 181.8 16.176 185.626 16.323 189.452 16.539 C 192.836 16.736 196.219 17.011 199.583 17.384 C 202.554 17.699 205.515 18.131 208.446 18.681 C 211.023 19.153 213.58 19.762 216.099 20.499 C 218.322 21.147 220.495 21.953 222.6 22.896 C 224.509 23.751 226.338 24.763 228.069 25.922 C 229.692 27.013 231.207 28.26 232.594 29.646 C 233.981 31.031 235.23 32.544 236.332 34.165 C 237.492 35.894 238.506 37.712 239.361 39.608 C 240.306 41.72 241.112 43.892 241.761 46.102 C 242.509 48.617 243.109 51.162 243.591 53.736 C 244.132 56.664 244.565 59.611 244.889 62.578 C 245.263 65.938 245.539 69.308 245.735 72.688 C 245.952 76.51 246.109 80.322 246.188 84.144 C 246.276 88.437 246.325 92.721 246.325 97.014 C 246.325 97.014 246.325 97.014 246.325 97.014 L 246.325 155.226 C 246.325 155.226 246.325 155.226 246.325 155.226 C 246.325 159.519 246.276 163.803 246.188 168.096 C 246.109 171.918 245.952 175.74 245.735 179.552 C 245.539 182.932 245.263 186.302 244.889 189.672 C 244.565 192.629 244.132 195.576 243.591 198.504 C 243.109 201.078 242.509 203.623 241.761 206.138 C 241.112 208.358 240.306 210.52 239.361 212.632 C 238.506 214.528 237.492 216.356 236.332 218.075 C 235.23 219.706 233.981 221.219 232.594 222.604 C 231.207 223.98 229.692 225.227 228.069 226.318 C 226.338 227.477 224.509 228.489 222.6 229.344 C 220.495 230.297 218.322 231.093 216.099 231.741 C 213.58 232.478 211.023 233.087 208.446 233.559 C 205.515 234.109 202.554 234.541 199.583 234.865 C 196.219 235.229 192.836 235.514 189.452 235.701 C 185.626 235.917 181.8 236.074 177.973 236.153 C 173.675 236.251 169.376 236.29 165.078 236.29 C 165.078 236.29 165.078 236.29 165.068 236.29 L 90.942 236.29 C 90.932 236.29 90.932 236.29 90.932 236.29 C 86.634 236.29 82.335 236.251 78.037 236.153 C 74.21 236.074 70.384 235.917 66.558 235.701 C 63.174 235.514 59.791 235.229 56.427 234.865 C 53.456 234.541 50.495 234.109 47.564 233.559 C 44.987 233.087 42.43 232.478 39.911 231.741 C 37.688 231.093 35.515 230.297 33.41 229.344 C 31.501 228.489 29.672 227.477 27.941 226.318 C 26.318 225.227 24.803 223.98 23.416 222.604 C 22.029 221.219 20.78 219.706 19.678 218.075 C 18.518 216.356 17.504 214.528 16.649 212.632 C 15.704 210.52 14.898 208.358 14.249 206.138 C 13.501 203.623 12.901 201.078 12.419 198.504 C 11.878 195.576 11.445 192.629 11.121 189.672 C 10.747 186.302 10.472 182.932 10.275 179.552 C 10.058 175.74 9.901 171.918 9.822 168.096 C 9.734 163.803 9.685 159.519 9.685 155.226 C 9.685 155.226 9.685 155.226 9.685 155.226 L 9.685 97.014 C 9.685 97.014 9.685 97.014 9.685 97.014 C 9.685 92.721 9.734 88.437 9.822 84.144 C 9.901 80.322 10.058 76.51 10.275 72.688 C 10.472 69.308 10.747 65.938 11.121 62.578 C 11.445 59.611 11.878 56.664 12.419 53.736 C 12.901 51.162 13.501 48.617 14.249 46.102 C 14.898 43.892 15.704 41.72 16.649 39.608 C 17.504 37.712 18.518 35.894 19.678 34.165 C 20.78 32.544 22.029 31.031 23.416 29.646 C 24.803 28.26 26.318 27.013 27.941 25.922 C 29.672 24.763 31.501 23.751 33.41 22.896 C 35.515 21.953 37.688 21.147 39.911 20.499 C 42.43 19.762 44.987 19.153 47.564 18.681 C 50.495 18.131 53.456 17.699 56.427 17.384 C 59.791 17.011 63.174 16.736 66.558 16.539 C 70.384 16.323 74.21 16.176 78.037 16.087 C 82.335 15.999 86.634 15.95 90.932 15.96 C 90.932 15.96 90.932 15.96 90.942 15.96 L 165.068 15.96 C 165.078 15.96 165.078 15.96 165.078 15.96 Z"/>
  </g>
  <g>
   <linearGradient id="_lgradient_161" x1="0" x2="1" y1="1" y2="1" gradientTransform="matrix(40.768,0,0,165,107.616,44.5)" gradientUnits="userSpaceOnUse">
    <stop offset="0%" style="stop-color:#ebdbb2"/>
    <stop offset="100%" style="stop-color:#d5c4a1"/>
   </linearGradient>
   <path fill="url(#_lgradient_161)" fill-rule="evenodd" d="M 113.35 44.5 L 142.65 44.5 C 145.827 44.5 148.384 47.057 148.384 50.234 L 148.384 203.766 C 148.384 206.943 145.827 209.5 142.65 209.5 L 113.35 209.5 C 110.173 209.5 107.616 206.943 107.616 203.766 L 107.616 50.234 C 107.616 47.057 110.173 44.5 113.35 44.5 Z"/>
   <linearGradient id="_lgradient_162" x1="0" x2="0" y1="0" y2="1" gradientTransform="matrix(15.592,0,0,15.592,130.516,101.695)" gradientUnits="userSpaceOnUse">
    <stop offset="0%" style="stop-color:#665c54"/>
    <stop offset="100%" style="stop-color:#3c3836"/>
   </linearGradient>
   <path fill="url(#_lgradient_162)" fill-rule="evenodd" d="M 146.107 109.491 C 146.107 113.796 142.617 117.287 138.312 117.287 C 134.006 117.287 130.516 113.796 130.516 109.491 C 130.516 105.185 134.006 101.695 138.312 101.695 C 142.617 101.695 146.107 105.185 146.107 109.491 Z"/>
   <linearGradient id="_lgradient_163" x1="0" x2="0" y1="0" y2="1" gradientTransform="matrix(37.476,0,0,37.476,109.159,59.77)" gradientUnits="userSpaceOnUse">
    <stop offset="0%" style="stop-color:#665c54"/>
    <stop offset="100%" style="stop-color:#3c3836"/>
   </linearGradient>
   <path fill="url(#_lgradient_163)" fill-rule="evenodd" d="M 146.635 78.507 C 146.635 88.856 138.246 97.245 127.897 97.245 C 117.549 97.245 109.159 88.856 109.159 78.507 C 109.159 68.159 117.549 59.77 127.897 59.77 C 138.246 59.77 146.635 68.159 146.635 78.507 Z"/>
   <linearGradient id="_lgradient_164" x1="1" x2="1" y1="1" y2="0" gradientTransform="matrix(15.592,0,0,15.592,109.307,101.695)" gradientUnits="userSpaceOnUse">
    <stop offset="0%" style="stop-color:#665c54"/>
    <stop offset="100%" style="stop-color:#3c3836"/>
   </linearGradient>
   <path fill="url(#_lgradient_164)" fill-rule="evenodd" d="M 124.898 109.491 C 124.898 113.796 121.408 117.287 117.102 117.287 C 112.797 117.287 109.307 113.796 109.307 109.491 C 109.307 105.185 112.797 101.695 117.102 101.695 C 121.408 101.695 124.898 105.185 124.898 109.491 Z"/>
   <linearGradient id="_lgradient_165" x1="0" x2="0" y1="0" y2="1" gradientTransform="matrix(17.611,0,0,17.611,118.879,70)" gradientUnits="userSpaceOnUse">
    <stop offset="0%" style="stop-color:#ebdbb2"/>
    <stop offset="100%" style="stop-color:#d5c4a1"/>
   </linearGradient>
   <path fill="url(#_lgradient_165)" fill-rule="evenodd" d="M 136.489 78.806 C 136.489 83.669 132.547 87.611 127.684 87.611 C 122.821 87.611 118.879 83.669 118.879 78.806 C 118.879 73.942 122.821 70 127.684 70 C 132.547 70 136.489 73.942 136.489 78.806 Z"/>
   <path fill="#ebdbb2" d="M 119.314 109.75 L 119.314 108.348 L 119.862 108.299 L 119.862 109.659 C 119.862 109.884 119.958 109.997 120.149 109.997 L 120.193 109.994 C 120.312 109.984 120.388 109.944 120.419 109.875 C 120.45 109.805 120.466 109.725 120.466 109.633 L 120.466 108.353 L 121.02 108.304 L 121.02 109.69 C 121.02 109.954 120.941 110.154 120.783 110.291 C 120.625 110.428 120.422 110.503 120.172 110.512 L 120.133 110.512 C 119.98 110.512 119.844 110.484 119.725 110.429 C 119.595 110.368 119.494 110.279 119.423 110.161 C 119.35 110.045 119.314 109.908 119.314 109.75 L 119.314 109.75 Z M 117.211 110.494 L 117.211 108.213 L 118.532 109.412 L 118.532 108.353 L 119.06 108.299 L 119.06 110.595 L 117.749 109.419 L 117.749 110.447 L 117.211 110.494 Z M 115.545 110.447 L 115.545 108.353 L 116.793 108.353 L 116.9 108.816 L 116.083 108.816 L 116.083 109.146 L 116.67 109.146 L 116.67 109.609 L 116.078 109.609 L 116.078 109.984 L 116.957 109.984 L 116.819 110.447 L 115.545 110.447 Z M 112.822 110.447 L 113.394 108.242 L 114.065 109.614 L 114.762 108.247 L 115.316 110.442 L 114.777 110.489 L 114.603 109.557 L 114.065 110.613 L 113.542 109.547 L 113.355 110.507 L 112.822 110.447 Z"/>
   <path fill="#ebdbb2" d="M 136.17 108.42 L 138.183 109.453 L 136.179 110.534 L 136.17 108.42 Z M 139.358 110.534 L 139.358 108.42 L 139.952 108.42 L 139.952 110.534 L 139.358 110.534 Z M 140.513 110.534 L 140.513 108.42 L 141.107 108.42 L 141.107 110.534 L 140.513 110.534 Z"/>
   <path fill="#ebdbb2" fill-rule="evenodd" d="M 128.605 62.177 C 128.605 62.59 128.27 62.924 127.857 62.924 C 127.444 62.924 127.11 62.59 127.11 62.177 C 127.11 61.764 127.444 61.429 127.857 61.429 C 128.27 61.429 128.605 61.764 128.605 62.177 Z"/>
   <path fill="#ebdbb2" fill-rule="evenodd" d="M 144.822 78.8 C 144.822 79.212 144.487 79.547 144.075 79.547 C 143.662 79.547 143.327 79.212 143.327 78.8 C 143.327 78.387 143.662 78.052 144.075 78.052 C 144.487 78.052 144.822 78.387 144.822 78.8 Z"/>
   <path fill="#ebdbb2" fill-rule="evenodd" d="M 112.285 78.8 C 112.285 79.212 111.95 79.547 111.537 79.547 C 111.124 79.547 110.79 79.212 110.79 78.8 C 110.79 78.387 111.124 78.052 111.537 78.052 C 111.95 78.052 112.285 78.387 112.285 78.8 Z"/>
   <path fill="#ebdbb2" fill-rule="evenodd" d="M 128.503 95.018 C 128.503 95.43 128.169 95.765 127.756 95.765 C 127.343 95.765 127.008 95.43 127.008 95.018 C 127.008 94.605 127.343 94.27 127.756 94.27 C 128.169 94.27 128.503 94.605 128.503 95.018 Z"/>
  </g>
 </g>
</svg>
